img/icons/svg/icon__basket-fill.svg

<svg xmlns="http://www.w3.org/2000/svg" xmlns:xlink="http://www.w3.org/1999/xlink" viewBox="0 0 640 640" width="640" height="640"><defs><path d="M145.14 119.94h1.35v4h1.35v4h1.36v4h1.35v4h1.35v4h1.35v4h1.36v4h1.35v4.01h1.35v4h1.36v4h1.35v4h1.35v4h1.35v4h1.36v4h1.35v4h1.35v4h1.36v4.01h1.35v4h1.35v5.33h1.35v4h1.36v4h1.35v4.01h1.35v4h1.36v4h1.35v4h1.35v4h1.35v4h1.36v4h1.35v4h1.35v4.01h1.36v4h1.35v4h1.35v4h1.35v4h1.36v4h1.35v4h1.35v4h1.35v4h1.36v4.01h1.35v4h1.35v5.33h1.36v4h1.35v4h1.35v4.01h1.35v4h1.36v4h1.35v4h1.35v4h1.36v4h1.35v4h1.35v4h1.35v4.01h1.36v4h1.35V336h16.23v-1.33h13.53v-1.34h13.53V332h13.53v-1.33h13.53v-1.34h13.53V328h13.52v-1.34l27.06-1.33V324h12.18v-1.34h13.52v-1.33l27.06-1.33v-1.34h12.18v-1.33h12.17v-1.34h12.18v-1.33h13.53v-1.33h12.17v-1.34h12.18v-1.33h12.17v-1.33h12.18v-1.34h12.17v-1.33h12.18v-1.34h12.17v-1.33l24.36-1.33v-1.34h9.47v-1.33h4.05v-1.33h2.71v-1.34h2.71v-1.33l5.41-1.34v-1.33h1.35v-1.33h2.71v-1.34h1.35v-1.33h1.35v-1.33h1.35v-1.34h1.36l1.35-2.67h1.35v-1.33l2.71-1.33v-2.67h1.35v-2.67h1.35v-2.67h1.36v-2.66h1.35v-4h1.35v-4.01h1.35v-5.33h1.36v-5.34h1.35v-4h1.35v-5.33h1.36v-4h1.35v-5.34h1.35v-5.33h1.35v-6.67h1.36v-5.34h1.35v-5.33h1.35v-5.34h1.36v-5.33h1.35v-5.34h1.35v-5.33h1.35v-5.34h1.36v-5.33h1.35v-5.34h1.35v-6.66h1.36v-5.34h1.35v-5.33h1.35v-5.34h1.35v-6.67h1.36v-5.33h1.35v-5.34h1.35v-5.33h1.36v-9.34H559.1v-1.33h-86.58v-1.34h-86.58v-1.33h-89.29v-1.33h-90.64v-1.34h-62.23v4h1.36v4.01z" id="l3mMUjvB2"/><path d="M174.54 565.57h1.48v2.83h1.47l1.47 5.66h1.48v1.42l2.94 1.41v2.84h1.48l1.47 2.83h2.95v1.41h1.47l1.47 2.83h2.95v1.42h2.95v1.41h2.94v1.42h5.9v1.41h19.15v-1.41h5.9v-1.42h2.94v-1.41l5.9-1.42v-1.41h1.47l1.47-2.83h2.95v-1.42l2.95-1.41v-2.84h1.47v-1.41l2.95-1.42v-2.83l2.94-1.41v-2.83h1.48v-4.25H260v-24.06h-1.47v-4.25h-1.48l-1.47-5.66-2.95-1.42v-2.83h-1.47v-1.41h-1.47v-1.42h-1.48v-1.42h-1.47v-1.41h-1.47l-1.48-2.83h-2.94l-1.48-2.83h-2.94v-1.42h-4.42v-1.41h-2.95v-1.42h-8.84v-1.41H209.9v1.41h-5.89v1.42h-4.42v1.41l-5.89 1.42v1.41h-1.48l-1.47 2.83h-2.95v1.42l-2.94 1.41v2.84h-1.48v1.41h-1.47v1.42l-2.95 1.41v2.83h-1.47v2.83h-1.47v2.84h-1.48v5.66h-1.47v19.81h1.47v4.25z" id="aOVn2ZbLh"/><path d="M457.35 562.25h1.35v4.1h1.35l1.35 5.46 2.69 1.37v2.73h1.35v1.36h1.35v1.37h1.35v1.37h1.35v1.36h1.35l1.35 2.73h2.69v1.37h1.35v1.36h2.7v1.37h4.05v1.36h5.39v1.37h16.19v-1.37h5.39v-1.36H514v-1.37l5.39-1.36v-1.37h1.35v-1.36h1.35v-1.37h1.35v-1.36h1.35v-1.37h1.35v-1.37h1.35v-1.36h1.35v-1.37l2.69-1.36v-2.73h1.35v-2.73h1.35v-2.73h1.35v-5.47h1.35v-19.11h-1.35v-2.73h-1.35v-4.1h-1.35v-2.73h-1.35v-1.37h-1.34v-2.73h-1.35v-1.36l-2.7-1.37v-2.73h-1.35v-1.37h-2.7v-1.36h-1.35v-1.37h-1.35l-1.34-2.73h-2.7v-1.36h-2.7v-1.37h-4.05v-1.36h-5.39V509h-10.79v1.37h-6.75v1.36h-5.39v1.37h-2.7l-1.35 2.73h-2.7v1.36h-1.34v1.37h-1.35v1.36h-1.35v1.37h-1.35v1.36h-1.35v1.37l-2.7 1.37v2.73h-1.35v1.36h-1.34v2.73h-1.35l-1.35 8.2h-1.35v9.55H456v2.74h1.35v9.55z" id="f2lcGwweyF"/><path d="M0 21.75C0 25.61 3.63 32 7.01 34.17c3.12 1.93 7.25 2.29 36.15 2.77 30.65.61 32.77.73 37.78 3.38 7.13 3.62 13.51 10.01 17.01 16.88 1.63 3.14 24.02 66.93 49.66 141.82 3.12 9.07 18.72 54.41 46.79 136.03-1.35 3.4-2.1 5.29-2.25 5.66-9.14 22.92-8.76 21.71-8.89 36.3 0 11.34.51 15.32 2.88 21.95 7.76 21.71 26.27 37.99 49.66 43.78 10.89 2.65 304.11 2.77 309.49.12 10.26-5.19 10.13-19.42-.25-25.21-2.13-1.08-36.65-1.56-154.12-2.05l-151.36-.6c-4.06-2.17-6.31-3.38-6.76-3.62-6.88-3.62-13.01-10.01-17.14-17.48-1.62-3.14-2.25-7-2.37-15.08 0-9.28.5-12.06 3.5-18.81 3.5-7.84 3.75-8.08 8.76-8.8 2.87-.37 73.05-7.48 155.99-15.8 82.94-8.32 153.87-15.68 157.62-16.4 15.01-2.78 30.65-10.37 41.78-20.26 8.13-7.24 16.52-20.14 20.77-32.08 4.63-12.9 39.03-154.96 38.28-157.98-.88-3.49-5.13-7.59-9.51-9.28-2-.72-92.82-2.41-245.44-4.46-133.35-1.81-242.56-3.5-242.93-3.86-.25-.24-3.38-9.17-7.01-19.78-9.25-26.89-12.63-33.28-23.14-43.53-9.63-9.41-21.89-16.04-34.15-18.45C74.06 8.6 58.29 8 41.53 8c-24.39 0-30.4.36-33.65 1.93C4 11.74 0 17.77 0 21.75zM606.46 126.9c.25.12-6.88 29.43-15.88 65.24-17.02 67.3-19.64 75.13-27.65 83.45-6.38 6.52-15.39 11.7-23.89 13.87-7.01 1.69-304.61 32.08-314.87 32.08h-3.88c-11.41-33.5-17.74-52.11-19.01-55.83-10.51-30.63-25.9-75.98-34.4-100.82-1.03-3.01-6.16-18.04-15.39-45.1 18.16.43 28.26.67 30.27.72 16.64.49 118.97 1.93 227.3 3.38 108.33 1.45 197.15 2.77 197.4 3.01z" id="a2FwjyqnRJ"/><path d="M146.52 534.41c-5.73 24.51 1.2 48.62 19.05 66.47 18.25 18.25 41.96 25.04 66.73 19.31 12.39-2.93 23.45-9.45 33.57-19.58 15.85-15.85 23.18-37.29 20.12-58.87-3.33-23.31-18.25-43.83-39.57-54.08-15.71-7.73-29.43-9.46-45.95-5.86-25.58 5.46-47.95 27.3-53.95 52.61zm107.9 17.18c0 7.86-.67 11.19-3.07 15.99-4.79 9.06-13.18 16.92-21.31 19.98-32.37 12.12-63.01-18.52-50.88-50.88 3.86-10.39 14.38-19.85 26.64-23.85 6.12-2 19.58-.4 27.17 3.33 13.99 6.8 21.31 19.18 21.45 35.43z" id="a1kC1Syic0"/><path d="M447.05 501.63c-14.39 14.39-20.65 29.3-20.65 49.42 0 20.24 6.53 36.23 20.92 50.48 27.7 27.71 71.66 27.71 99.36 0 14.39-14.25 20.92-29.97 20.92-49.68 0-21.05-6-35.57-20.65-50.22-10.79-10.79-21.71-16.78-35.96-19.85-11.33-2.4-17.32-2.4-28.64.14-13.59 2.93-24.64 9.05-35.3 19.71zm85.65 33.83c8.66 18.92.66 41.43-17.98 50.89-9.19 4.79-26.24 4.79-35.44 0-21.84-11.06-27.97-37.83-13.45-58.88 9.72-13.99 30.77-19.45 47.42-12.12 7.99 3.6 15.32 11.19 19.45 20.11z" id="aNWfKtwFv"/></defs><use xlink:href="#l3mMUjvB2"/><use xlink:href="#l3mMUjvB2" fill-opacity="0" stroke="#000" stroke-opacity="0"/><use xlink:href="#aOVn2ZbLh"/><use xlink:href="#aOVn2ZbLh" fill-opacity="0" stroke="#000" stroke-opacity="0"/><use xlink:href="#f2lcGwweyF"/><use xlink:href="#f2lcGwweyF" fill-opacity="0" stroke="#000" stroke-opacity="0"/><use xlink:href="#a2FwjyqnRJ"/><use xlink:href="#a2FwjyqnRJ" fill-opacity="0" stroke="#000" stroke-opacity="0"/><use xlink:href="#a1kC1Syic0"/><use xlink:href="#a1kC1Syic0" fill-opacity="0" stroke="#000" stroke-opacity="0"/><use xlink:href="#aNWfKtwFv"/><use xlink:href="#aNWfKtwFv" fill-opacity="0" stroke="#000" stroke-opacity="0"/></svg>

<?xml version="1.0" encoding="UTF-8" standalone="no"?>
<!DOCTYPE svg PUBLIC "-//W3C//DTD SVG 1.1//EN" "http://www.w3.org/Graphics/SVG/1.1/DTD/svg11.dtd">
<svg version="1.1" xmlns="http://www.w3.org/2000/svg" xmlns:xlink="http://www.w3.org/1999/xlink" preserveAspectRatio="xMidYMid meet" viewBox="0 0 640 640" width="640" height="640"><defs><path d="M145.14 119.94L146.49 119.94L146.49 123.94L147.84 123.94L147.84 127.94L149.2 127.94L149.2 131.94L150.55 131.94L150.55 135.94L151.9 135.94L151.9 139.94L153.25 139.94L153.25 143.94L154.61 143.94L154.61 147.94L155.96 147.94L155.96 151.95L157.31 151.95L157.31 155.95L158.67 155.95L158.67 159.95L160.02 159.95L160.02 163.95L161.37 163.95L161.37 167.95L162.72 167.95L162.72 171.95L164.08 171.95L164.08 175.95L165.43 175.95L165.43 179.95L166.78 179.95L166.78 183.95L168.14 183.95L168.14 187.96L169.49 187.96L169.49 191.96L170.84 191.96L170.84 197.29L172.19 197.29L172.19 201.29L173.55 201.29L173.55 205.29L174.9 205.29L174.9 209.3L176.25 209.3L176.25 213.3L177.61 213.3L177.61 217.3L178.96 217.3L178.96 221.3L180.31 221.3L180.31 225.3L181.66 225.3L181.66 229.3L183.02 229.3L183.02 233.3L184.37 233.3L184.37 237.3L185.72 237.3L185.72 241.31L187.08 241.31L187.08 245.31L188.43 245.31L188.43 249.31L189.78 249.31L189.78 253.31L191.13 253.31L191.13 257.31L192.49 257.31L192.49 261.31L193.84 261.31L193.84 265.31L195.19 265.31L195.19 269.31L196.54 269.31L196.54 273.31L197.9 273.31L197.9 277.32L199.25 277.32L199.25 281.32L200.6 281.32L200.6 286.65L201.96 286.65L201.96 290.65L203.31 290.65L203.31 294.65L204.66 294.65L204.66 298.66L206.01 298.66L206.01 302.66L207.37 302.66L207.37 306.66L208.72 306.66L208.72 310.66L210.07 310.66L210.07 314.66L211.43 314.66L211.43 318.66L212.78 318.66L212.78 322.66L214.13 322.66L214.13 326.66L215.48 326.66L215.48 330.67L216.84 330.67L216.84 334.67L218.19 334.67L218.19 336L234.42 336L234.42 334.67L247.95 334.67L247.95 333.33L261.48 333.33L261.48 332L275.01 332L275.01 330.67L288.54 330.67L288.54 329.33L302.07 329.33L302.07 328L315.59 328L315.59 326.66L342.65 325.33L342.65 324L354.83 324L354.83 322.66L368.35 322.66L368.35 321.33L395.41 320L395.41 318.66L407.59 318.66L407.59 317.33L419.76 317.33L419.76 315.99L431.94 315.99L431.94 314.66L445.47 314.66L445.47 313.33L457.64 313.33L457.64 311.99L469.82 311.99L469.82 310.66L481.99 310.66L481.99 309.33L494.17 309.33L494.17 307.99L506.34 307.99L506.34 306.66L518.52 306.66L518.52 305.32L530.69 305.32L530.69 303.99L555.05 302.66L555.05 301.32L564.52 301.32L564.52 299.99L568.57 299.99L568.57 298.66L571.28 298.66L571.28 297.32L573.99 297.32L573.99 295.99L579.4 294.65L579.4 293.32L580.75 293.32L580.75 291.99L583.46 291.99L583.46 290.65L584.81 290.65L584.81 289.32L586.16 289.32L586.16 287.99L587.51 287.99L587.51 286.65L588.87 286.65L590.22 283.98L591.57 283.98L591.57 282.65L594.28 281.32L594.28 278.65L595.63 278.65L595.63 275.98L596.98 275.98L596.98 273.31L598.34 273.31L598.34 270.65L599.69 270.65L599.69 266.65L601.04 266.65L601.04 262.64L602.39 262.64L602.39 257.31L603.75 257.31L603.75 251.97L605.1 251.97L605.1 247.97L606.45 247.97L606.45 242.64L607.81 242.64L607.81 238.64L609.16 238.64L609.16 233.3L610.51 233.3L610.51 227.97L611.86 227.97L611.86 221.3L613.22 221.3L613.22 215.96L614.57 215.96L614.57 210.63L615.92 210.63L615.92 205.29L617.28 205.29L617.28 199.96L618.63 199.96L618.63 194.62L619.98 194.62L619.98 189.29L621.33 189.29L621.33 183.95L622.69 183.95L622.69 178.62L624.04 178.62L624.04 173.28L625.39 173.28L625.39 166.62L626.75 166.62L626.75 161.28L628.1 161.28L628.1 155.95L629.45 155.95L629.45 150.61L630.8 150.61L630.8 143.94L632.16 143.94L632.16 138.61L633.51 138.61L633.51 133.27L634.86 133.27L634.86 127.94L636.22 127.94L636.22 118.6L559.1 118.6L559.1 117.27L472.52 117.27L472.52 115.93L385.94 115.93L385.94 114.6L296.65 114.6L296.65 113.27L206.01 113.27L206.01 111.93L143.78 111.93L143.78 115.93L145.14 115.93L145.14 117.27L145.14 119.94Z" id="l3mMUjvB2"></path><path d="M174.54 565.57L176.02 565.57L176.02 568.4L177.49 568.4L178.96 574.06L180.44 574.06L180.44 575.48L183.38 576.89L183.38 579.73L184.86 579.73L186.33 582.56L189.28 582.56L189.28 583.97L190.75 583.97L192.22 586.8L195.17 586.8L195.17 588.22L198.12 588.22L198.12 589.63L201.06 589.63L201.06 591.05L206.96 591.05L206.96 592.46L226.11 592.46L226.11 591.05L232.01 591.05L232.01 589.63L234.95 589.63L234.95 588.22L240.85 586.8L240.85 585.39L242.32 585.39L243.79 582.56L246.74 582.56L246.74 581.14L249.69 579.73L249.69 576.89L251.16 576.89L251.16 575.48L254.11 574.06L254.11 571.23L257.05 569.82L257.05 566.99L258.53 566.99L258.53 562.74L260 562.74L260 538.68L258.53 538.68L258.53 537.26L258.53 534.43L257.05 534.43L255.58 528.77L252.63 527.35L252.63 524.52L251.16 524.52L251.16 523.11L249.69 523.11L249.69 521.69L248.21 521.69L248.21 520.27L246.74 520.27L246.74 518.86L245.27 518.86L243.79 516.03L240.85 516.03L239.37 513.2L236.43 513.2L236.43 511.78L232.01 511.78L232.01 510.37L229.06 510.37L229.06 508.95L220.22 508.95L220.22 507.54L209.9 507.54L209.9 508.95L204.01 508.95L204.01 510.37L199.59 510.37L199.59 511.78L193.7 513.2L193.7 514.61L192.22 514.61L190.75 517.44L187.8 517.44L187.8 518.86L184.86 520.27L184.86 523.11L183.38 523.11L183.38 524.52L181.91 524.52L181.91 525.94L178.96 527.35L178.96 530.18L177.49 530.18L177.49 533.01L176.02 533.01L176.02 535.85L174.54 535.85L174.54 541.51L173.07 541.51L173.07 561.32L174.54 561.32L174.54 562.74L174.54 565.57Z" id="aOVn2ZbLh"></path><path d="M457.35 562.25L458.7 562.25L458.7 566.35L460.05 566.35L461.4 571.81L464.09 573.18L464.09 575.91L465.44 575.91L465.44 577.27L466.79 577.27L466.79 578.64L468.14 578.64L468.14 580.01L469.49 580.01L469.49 581.37L470.84 581.37L472.19 584.1L474.88 584.1L474.88 585.47L476.23 585.47L476.23 586.83L478.93 586.83L478.93 588.2L482.98 588.2L482.98 589.56L488.37 589.56L488.37 590.93L504.56 590.93L504.56 589.56L509.95 589.56L509.95 588.2L514 588.2L514 586.83L519.39 585.47L519.39 584.1L520.74 584.1L520.74 582.74L522.09 582.74L522.09 581.37L523.44 581.37L523.44 580.01L524.79 580.01L524.79 578.64L526.14 578.64L526.14 577.27L527.49 577.27L527.49 575.91L528.84 575.91L528.84 574.54L531.53 573.18L531.53 570.45L532.88 570.45L532.88 567.72L534.23 567.72L534.23 564.99L535.58 564.99L535.58 559.52L536.93 559.52L536.93 544.5L536.93 540.41L535.58 540.41L535.58 537.68L534.23 537.68L534.23 533.58L532.88 533.58L532.88 530.85L531.53 530.85L531.53 529.48L530.19 529.48L530.19 526.75L528.84 526.75L528.84 525.39L526.14 524.02L526.14 521.29L524.79 521.29L524.79 519.92L522.09 519.92L522.09 518.56L520.74 518.56L520.74 517.19L519.39 517.19L518.05 514.46L515.35 514.46L515.35 513.1L512.65 513.1L512.65 511.73L508.6 511.73L508.6 510.37L503.21 510.37L503.21 509L492.42 509L492.42 510.37L485.67 510.37L485.67 511.73L480.28 511.73L480.28 513.1L477.58 513.1L476.23 515.83L473.53 515.83L473.53 517.19L472.19 517.19L472.19 518.56L470.84 518.56L470.84 519.92L469.49 519.92L469.49 521.29L468.14 521.29L468.14 522.65L466.79 522.65L466.79 524.02L464.09 525.39L464.09 528.12L462.74 528.12L462.74 529.48L461.4 529.48L461.4 532.21L460.05 532.21L458.7 540.41L457.35 540.41L457.35 549.96L456 549.96L456 552.7L457.35 552.7L457.35 554.06L457.35 562.25Z" id="f2lcGwweyF"></path><path d="M0 21.75C0 25.61 3.63 32 7.01 34.17C10.13 36.1 14.26 36.46 43.16 36.94C73.81 37.55 75.93 37.67 80.94 40.32C88.07 43.94 94.45 50.33 97.95 57.2C99.58 60.34 121.97 124.13 147.61 199.02C150.73 208.09 166.33 253.43 194.4 335.05C193.05 338.45 192.3 340.34 192.15 340.71C183.01 363.63 183.39 362.42 183.26 377.01C183.26 388.35 183.77 392.33 186.14 398.96C193.9 420.67 212.41 436.95 235.8 442.74C246.69 445.39 539.91 445.51 545.29 442.86C555.55 437.67 555.42 423.44 545.04 417.65C542.91 416.57 508.39 416.09 390.92 415.6C380.83 415.56 330.38 415.36 239.56 415C235.5 412.83 233.25 411.62 232.8 411.38C225.92 407.76 219.79 401.37 215.66 393.9C214.04 390.76 213.41 386.9 213.29 378.82C213.29 369.54 213.79 366.76 216.79 360.01C220.29 352.17 220.54 351.93 225.55 351.21C228.42 350.84 298.6 343.73 381.54 335.41C464.48 327.09 535.41 319.73 539.16 319.01C554.17 316.23 569.81 308.64 580.94 298.75C589.07 291.51 597.46 278.61 601.71 266.67C606.34 253.77 640.74 111.71 639.99 108.69C639.11 105.2 634.86 101.1 630.48 99.41C628.48 98.69 537.66 97 385.04 94.95C251.69 93.14 142.48 91.45 142.11 91.09C141.86 90.85 138.73 81.92 135.1 71.31C125.85 44.42 122.47 38.03 111.96 27.78C102.33 18.37 90.07 11.74 77.81 9.33C74.06 8.6 58.29 8 41.53 8C17.14 8 11.13 8.36 7.88 9.93C4 11.74 0 17.77 0 21.75ZM606.46 126.9C606.71 127.02 599.58 156.33 590.58 192.14C573.56 259.44 570.94 267.27 562.93 275.59C556.55 282.11 547.54 287.29 539.04 289.46C532.03 291.15 234.43 321.54 224.17 321.54C223.91 321.54 222.62 321.54 220.29 321.54C208.88 288.04 202.55 269.43 201.28 265.71C190.77 235.08 175.38 189.73 166.88 164.89C165.85 161.88 160.72 146.85 151.49 119.79C169.65 120.22 179.75 120.46 181.76 120.51C198.4 121 300.73 122.44 409.06 123.89C517.39 125.34 606.21 126.66 606.46 126.9Z" id="a2FwjyqnRJ"></path><path d="M146.52 534.41C140.79 558.92 147.72 583.03 165.57 600.88C183.82 619.13 207.53 625.92 232.3 620.19C244.69 617.26 255.75 610.74 265.87 600.61C281.72 584.76 289.05 563.32 285.99 541.74C282.66 518.43 267.74 497.91 246.42 487.66C230.71 479.93 216.99 478.2 200.47 481.8C174.89 487.26 152.52 509.1 146.52 534.41ZM254.42 551.59C254.42 559.45 253.75 562.78 251.35 567.58C246.56 576.64 238.17 584.5 230.04 587.56C197.67 599.68 167.03 569.04 179.16 536.68C183.02 526.29 193.54 516.83 205.8 512.83C211.92 510.83 225.38 512.43 232.97 516.16C246.96 522.96 254.28 535.34 254.42 551.59Z" id="a1kC1Syic0"></path><path d="M447.05 501.63C432.66 516.02 426.4 530.93 426.4 551.05C426.4 571.29 432.93 587.28 447.32 601.53C475.02 629.24 518.98 629.24 546.68 601.53C561.07 587.28 567.6 571.56 567.6 551.85C567.6 530.8 561.6 516.28 546.95 501.63C536.16 490.84 525.24 484.85 510.99 481.78C499.66 479.38 493.67 479.38 482.35 481.92C468.76 484.85 457.71 490.97 447.05 501.63ZM532.7 535.46C541.36 554.38 533.36 576.89 514.72 586.35C505.53 591.14 488.48 591.14 479.28 586.35C457.44 575.29 451.31 548.52 465.83 527.47C475.55 513.48 496.6 508.02 513.25 515.35C521.24 518.95 528.57 526.54 532.7 535.46Z" id="aNWfKtwFv"></path></defs><g><g><g><use xlink:href="#l3mMUjvB2" opacity="1" fill="#000000" fill-opacity="1"></use><g><use xlink:href="#l3mMUjvB2" opacity="1" fill-opacity="0" stroke="#000000" stroke-width="1" stroke-opacity="0"></use></g></g><g><use xlink:href="#aOVn2ZbLh" opacity="1" fill="#000000" fill-opacity="1"></use><g><use xlink:href="#aOVn2ZbLh" opacity="1" fill-opacity="0" stroke="#000000" stroke-width="1" stroke-opacity="0"></use></g></g><g><use xlink:href="#f2lcGwweyF" opacity="1" fill="#000000" fill-opacity="1"></use><g><use xlink:href="#f2lcGwweyF" opacity="1" fill-opacity="0" stroke="#000000" stroke-width="1" stroke-opacity="0"></use></g></g><g><use xlink:href="#a2FwjyqnRJ" opacity="1" fill="#000000" fill-opacity="1"></use><g><use xlink:href="#a2FwjyqnRJ" opacity="1" fill-opacity="0" stroke="#000000" stroke-width="1" stroke-opacity="0"></use></g></g><g><use xlink:href="#a1kC1Syic0" opacity="1" fill="#000000" fill-opacity="1"></use><g><use xlink:href="#a1kC1Syic0" opacity="1" fill-opacity="0" stroke="#000000" stroke-width="1" stroke-opacity="0"></use></g></g><g><use xlink:href="#aNWfKtwFv" opacity="1" fill="#000000" fill-opacity="1"></use><g><use xlink:href="#aNWfKtwFv" opacity="1" fill-opacity="0" stroke="#000000" stroke-width="1" stroke-opacity="0"></use></g></g></g></g></svg>
